X:238
T:Jeanette & Jeannot Quadrilles No.5. Le4.238
M:2/4
L:1/8
Q:2/4=50
B:L.Leadley MS#4 c1850
Z:Village Music Project 2016 Steve Mansfield
K:D
A,z Dz/F/ | FEE z | B,z Ez/G/ | GFF z |
Fz Az/d/ | cBB z | Az/A/ FD | [CE]z AA/A/ |
Ad/f/ af/d/ | Ad/f/ af/d/ | fd/e/ fe/d/ | ea/a/ aA/A/ |
Ad/f/ af/d/ | Ad/f/ af/d/ | ad/f/ ac' | d' z [Ddd'] H ||
A | Addc | ed A>A | f>f gf | e3 e |
f>f ed | cB d>B | A>d cd | ea/a/ ae |
eeee | feee | ed {d}cB | c3 c |
cc {e}dc | B>c df | e>A cB | A z z2 !D.C.! |]

